src/assets/img/providers/northern_lights.svg

<svg width="74" height="32" viewBox="0 0 74 32" fill="none" xmlns="http://www.w3.org/2000/svg">
<path fill-rule="evenodd" clip-rule="evenodd" d="M18.2599 25.3225C17.6094 25.0328 17.3142 24.2638 17.6038 23.6133L27.7275 0.888639C28.0173 0.238018 28.7865 -0.0571993 29.4369 0.232435C30.0875 0.521933 30.3827 1.29116 30.0932 1.94164L19.9694 24.6664C19.6797 25.3169 18.9105 25.6122 18.2599 25.3225ZM22.5158 25.3225C21.8653 25.0329 21.5701 24.2638 21.8598 23.6133L29.459 6.54901C29.7486 5.89853 30.5177 5.60331 31.1683 5.89294C31.8188 6.18285 32.114 6.95194 31.8244 7.60242L24.2253 24.6665C23.9357 25.3169 23.1664 25.6123 22.5158 25.3225ZM26.1157 23.6132C25.826 24.2637 26.1213 25.0328 26.7717 25.3225C27.4224 25.6122 28.1916 25.3169 28.4812 24.6664L33.4333 13.4153C33.723 12.7648 33.4277 11.9956 32.7774 11.7058C32.1268 11.4162 31.3575 11.7114 31.0679 12.3619L26.1157 23.6132ZM30.9757 25.3225C30.3252 25.0328 30.03 24.2637 30.3197 23.6132L32.6769 18.3305C32.9664 17.68 33.7356 17.3848 34.3862 17.6745C35.0367 17.9644 35.3319 18.7335 35.0423 19.3839L32.6852 24.6664C32.3956 25.3169 31.6263 25.6122 30.9757 25.3225ZM43.122 23.6132C42.8322 24.2637 43.1276 25.0328 43.7781 25.3225C44.4287 25.6122 45.1979 25.3169 45.4873 24.6664L47.8447 19.3839C48.134 18.7335 47.8391 17.9644 47.1885 17.6745C46.538 17.3848 45.7687 17.68 45.479 18.3305L43.122 23.6132ZM48.034 25.3225C47.3835 25.0328 47.0882 24.2637 47.3779 23.6132L49.7349 18.3305C50.0247 17.68 50.7939 17.3848 51.4444 17.6745C52.095 17.9644 52.3899 18.7335 52.1006 19.3839L49.7432 24.6664C49.4538 25.3169 48.6846 25.6122 48.034 25.3225ZM51.5819 23.6132C51.2922 24.2637 51.5875 25.0328 52.238 25.3225C52.8886 25.6122 53.6579 25.3169 53.9472 24.6664L56.3046 19.3839C56.594 18.7335 56.299 17.9644 55.6484 17.6745C54.9979 17.3848 54.2287 17.68 53.9389 18.3305L51.5819 23.6132ZM35.1797 25.3225C34.5293 25.0328 34.234 24.2638 34.5237 23.6133L44.6474 0.888639C44.9372 0.238018 45.7064 -0.0571993 46.3567 0.232435C47.0074 0.521933 47.3026 1.29116 47.0131 1.94164L36.8892 24.6664C36.5996 25.3169 35.8304 25.6122 35.1797 25.3225ZM38.8142 23.6133C38.5244 24.2638 38.8198 25.0328 39.4703 25.3225C40.1209 25.6122 40.8901 25.3169 41.1795 24.6664L51.3033 1.94164C51.5931 1.29116 51.2977 0.521933 50.6473 0.232435C49.9966 -0.0571993 49.2275 0.238018 48.9379 0.888639L38.8142 23.6133ZM62.0646 31.8827V30.6445H59.5426V31.8827H58.7518V28.7816H59.5426V30.0357H62.0646V28.7816H62.8553V31.8827H62.0646ZM28.9514 28.7816V31.8827H32.4545V31.2728L29.742 31.2716V30.644L32.2502 30.6444V30.0344L29.742 30.035V29.3903L32.4545 29.3916V28.7816H28.9514ZM26.4362 31.8827V30.6445H23.9145V31.8827H23.1234V28.7816H23.9145V30.0357H26.4362V28.7816H27.2269V31.8827H26.4362ZM1.65939 31.8827V29.0294L3.62392 31.8827C3.62392 31.8827 4.42215 31.883 4.43073 31.8827H5.22269V28.7817H4.43195V31.4346V31.6664L2.4613 28.7817H0.868652V31.8827H1.65939ZM40.5259 29.0294V31.8827H39.7353V28.7817H41.328L43.2985 31.6664V31.4346V28.7817H44.0892V31.8827H43.2973C43.2887 31.883 42.4905 31.8827 42.4905 31.8827L40.5259 29.0294ZM19.4938 29.4218V31.8833H20.3443V29.4218L21.8416 29.4201V28.7808H17.9966V29.4215L19.4938 29.4218ZM65.7435 31.8833V29.4218L64.2464 29.4215V28.7808H68.0915V29.4201L66.5943 29.4218V31.8833H65.7435ZM45.8235 28.7797V31.8843H49.0815L49.082 31.2594L46.6783 31.2602L46.6741 28.7797H45.8235ZM50.2948 28.7767H51.1454V31.8897H50.2948V28.7767ZM13.6906 30.4302V29.3889L15.4424 29.3931C15.6769 29.3931 15.8681 29.584 15.8681 29.8191V30.0034C15.8681 30.2382 15.6769 30.4294 15.4424 30.4294L13.6906 30.4302ZM15.1502 31.062L15.7373 31.8853L16.6437 31.8857L16.0479 31.0582C16.0479 31.0582 16.6554 30.8104 16.6554 30.2338V29.6065C16.6554 29.1498 16.2835 28.7779 15.8271 28.7779L12.8339 28.7767V31.8864H13.6881L13.6887 31.0609L15.1502 31.062ZM35.0441 29.3889V30.4302L36.7956 30.4294C37.0303 30.4294 37.2214 30.2382 37.2214 30.0034V29.8191C37.2214 29.584 37.0303 29.3931 36.7956 29.3931L35.0441 29.3889ZM37.0909 31.8853L36.5036 31.062L35.0422 31.0609L35.0416 31.8864H34.1873V28.7767L37.1803 28.7779C37.637 28.7779 38.0086 29.1498 38.0086 29.6065V30.2338C38.0086 30.8104 37.4015 31.0582 37.4015 31.0582L37.9971 31.8857L37.0909 31.8853ZM7.68057 29.9501C7.68057 29.6498 7.92472 29.4057 8.22471 29.4057H9.83887C10.1393 29.4057 10.3834 29.6498 10.3834 29.9501V30.7152C10.3834 31.0155 10.1393 31.2596 9.83887 31.2596H8.22471C7.92472 31.2596 7.68057 31.0155 7.68057 30.7152V29.9501ZM6.95083 31.0231C6.95083 31.5062 7.34382 31.8995 7.82668 31.8995H10.2478C10.7306 31.8995 11.1239 31.5062 11.1239 31.0231V29.6463C11.1239 29.1631 10.7306 28.7702 10.2478 28.7702H7.82668C7.34382 28.7702 6.95083 29.1631 6.95083 29.6463V31.0231ZM53.7385 31.8985C53.2556 31.8985 52.8626 31.5056 52.8626 31.0227V29.6455C52.8626 29.1625 53.2556 28.7698 53.7385 28.7698H56.1596C56.5693 28.7698 56.9265 29.0618 57.0139 29.4584L56.2403 29.7161C56.1505 29.5276 55.9617 29.405 55.7505 29.405H54.1365C53.8365 29.405 53.5924 29.6493 53.5924 29.9494V30.7145C53.5924 31.0148 53.8365 31.2591 54.1365 31.2591H55.7505C56.0511 31.2591 56.2951 31.0148 56.2951 30.7145V30.6955C56.2951 30.6564 56.2633 30.6245 56.2244 30.6245H54.9451L54.9503 30.1922H57.0326L57.0357 31.0227C57.0357 31.5056 56.6424 31.8985 56.1596 31.8985H53.7385ZM73.0468 29.6803V29.7337H72.2928C72.2933 29.7254 72.2952 29.7174 72.2952 29.7087C72.2952 29.5224 72.1429 29.3701 71.9568 29.3701H70.4866C70.3917 29.3701 70.3062 29.4099 70.2445 29.4732C70.1812 29.5348 70.1417 29.6204 70.1417 29.7151C70.1417 29.873 70.2516 30.0055 70.3984 30.0423C70.4247 30.0491 70.4518 30.0535 70.4801 30.0535L72.2427 30.0678C72.7439 30.0667 73.0692 30.4128 73.0706 30.9142L73.0709 30.9838C73.0722 31.4849 72.6633 31.8961 72.1619 31.8976L70.3562 31.9025C69.8551 31.904 69.444 31.4951 69.4425 30.9938L69.4423 30.9403L70.2034 30.9384C70.1994 30.9588 70.1967 30.9802 70.1967 31.0017C70.1967 31.188 70.3491 31.3175 70.5351 31.3175H72.036C72.222 31.3175 72.3743 31.1654 72.3743 30.9791C72.3743 30.7931 72.222 30.6636 72.036 30.6636L70.36 30.6613C69.8587 30.6613 69.4486 30.2513 69.4486 29.7501V29.6803C69.4486 29.1792 69.8587 28.7692 70.36 28.7692H72.1354C72.6365 28.7692 73.0468 29.1792 73.0468 29.6803Z" fill="#919EAB"/>
</svg>

<svg width="74" height="32" fill="none" xmlns="http://www.w3.org/2000/svg"><path fill-rule="evenodd" clip-rule="evenodd" d="M18.26 25.323a1.298 1.298 0 0 1-.656-1.71L27.727.89a1.299 1.299 0 0 1 1.71-.657c.65.29.946 1.06.656 1.71L19.97 24.666c-.29.65-1.059.946-1.71.657Zm4.256 0a1.298 1.298 0 0 1-.656-1.71L29.459 6.55a1.298 1.298 0 0 1 1.71-.656c.65.29.945 1.059.655 1.71l-7.599 17.063c-.29.65-1.059.946-1.71.657Zm3.6-1.71c-.29.65.005 1.42.656 1.71.65.29 1.42-.006 1.71-.657l4.951-11.25c.29-.651-.005-1.42-.656-1.71-.65-.29-1.42.005-1.71.656l-4.951 11.251Zm4.86 1.71a1.298 1.298 0 0 1-.656-1.71l2.357-5.282a1.298 1.298 0 0 1 1.71-.657c.65.29.945 1.06.655 1.71l-2.357 5.282c-.29.65-1.059.946-1.71.657Zm12.146-1.71c-.29.65.006 1.42.656 1.71.65.29 1.42-.006 1.71-.657l2.357-5.282c.289-.65-.006-1.42-.657-1.71-.65-.29-1.42.006-1.709.657l-2.357 5.282Zm4.912 1.71a1.298 1.298 0 0 1-.656-1.71l2.357-5.282a1.299 1.299 0 0 1 1.71-.657c.65.29.945 1.06.656 1.71l-2.358 5.282c-.29.65-1.058.946-1.709.657Zm3.548-1.71c-.29.65.005 1.42.656 1.71.65.29 1.42-.006 1.71-.657l2.357-5.282c.289-.65-.006-1.42-.657-1.71-.65-.29-1.42.006-1.71.657l-2.356 5.282Zm-16.402 1.71a1.298 1.298 0 0 1-.656-1.71L44.647.89a1.298 1.298 0 0 1 1.71-.657c.65.29.946 1.06.656 1.71L36.89 24.666c-.29.65-1.059.946-1.71.657Zm3.634-1.71c-.29.65.006 1.42.656 1.71.65.29 1.42-.006 1.71-.657L51.302 1.942c.29-.65-.005-1.42-.656-1.71-.65-.29-1.42.006-1.71.657L38.815 23.613Zm23.25 8.27v-1.238h-2.521v1.238h-.791v-3.101h.79v1.254h2.523v-1.254h.79v3.1h-.79Zm-33.113-3.101v3.1h3.504v-.61h-2.713v-.628h2.508v-.61l-2.508.001v-.645l2.713.002v-.61H28.95Zm-2.515 3.1v-1.238h-2.521v1.239h-.792v-3.101h.791v1.254h2.522v-1.254h.79v3.1h-.79Zm-24.777 0V29.03l1.965 2.854H5.223v-3.101h-.791v2.884l-1.97-2.884H.868v3.1h.79Zm38.867-2.853v2.854h-.79v-3.101h1.592l1.97 2.884v-2.884h.791v3.1h-1.598l-1.965-2.853Zm-21.032.393v2.461h.85v-2.461l1.498-.002v-.64h-3.845v.642h1.497Zm46.25 2.461v-2.461h-1.498v-.641h3.846v.64h-1.498v2.462h-.85Zm-19.92-3.103v3.104h3.258v-.625l-2.404.001-.004-2.48h-.85Zm4.47-.003h.851v3.113h-.85v-3.113ZM13.692 30.43V29.39l1.751.004c.235 0 .426.191.426.426v.184a.427.427 0 0 1-.426.426l-1.751.001Zm1.46.632.586.823h.907l-.596-.827s.607-.248.607-.824v-.628a.83.83 0 0 0-.828-.828l-2.993-.001v3.11h.854v-.826l1.462.001Zm19.893-1.673v1.041h1.752a.427.427 0 0 0 .425-.427v-.184a.426.426 0 0 0-.425-.426l-1.752-.004Zm2.047 2.496-.587-.823-1.462-.001v.825h-.855v-3.11l2.993.002a.83.83 0 0 1 .829.829v.627c0 .576-.608.824-.608.824l.596.828h-.906ZM7.68 29.95c0-.3.244-.544.544-.544h1.614c.3 0 .544.244.544.544v.765c0 .3-.244.545-.544.545H8.225a.545.545 0 0 1-.544-.545v-.765Zm-.73 1.073c0 .483.393.877.876.877h2.42a.878.878 0 0 0 .877-.877v-1.377a.877.877 0 0 0-.876-.876H7.827a.877.877 0 0 0-.876.876v1.377Zm46.788.875a.877.877 0 0 1-.876-.875v-1.378c0-.482.393-.875.876-.875h2.42c.41 0 .767.292.855.688l-.774.258a.543.543 0 0 0-.49-.311h-1.614c-.3 0-.544.244-.544.544v.765c0 .3.245.545.544.545h1.614c.301 0 .545-.244.545-.544v-.02a.071.071 0 0 0-.07-.07h-1.28l.005-.433h2.083l.003.83a.877.877 0 0 1-.876.877h-2.421Zm19.308-2.218v.054h-.754l.002-.025a.34.34 0 0 0-.338-.339h-1.47c-.095 0-.18.04-.242.103a.337.337 0 0 0 .235.58l1.763.015c.5-.001.826.345.828.846v.07a.914.914 0 0 1-.91.914l-1.805.005a.914.914 0 0 1-.913-.91v-.053l.76-.002a.33.33 0 0 0-.006.064c0 .186.152.316.338.316h1.501a.34.34 0 0 0 .338-.339c0-.186-.152-.315-.338-.315l-1.676-.003a.914.914 0 0 1-.911-.91v-.07c0-.502.41-.912.911-.912h1.775c.501 0 .912.41.912.911Z" fill="#919EAB"/></svg>
